svgs/1F61E.svg

<svg xmlns="http://www.w3.org/2000/svg" xmlns:xlink="http://www.w3.org/1999/xlink" preserveAspectRatio="none" viewBox="0 0 72 72"><defs><path id="a" fill="#FCC21B" d="M127.75 93.35q0-27-8.5-47Q103.65 9.7 64 9.7 24.3 9.65 8.7 46.3.2 66.35.2 93.35q0 10.4 18.7 17.7 18.65 7.35 45.1 7.35 26.4 0 45.1-7.35 18.65-7.3 18.65-17.7z"/><path id="b" fill="#2F2F2F" d="M96.15 52.4q-.85 1.35-2.45 2.55-3.1 2.4-7.25 2.4-4.1 0-7.25-2.4-2.35-2.45-2.45-2.6-.75-1.3-2.3-1.3-.7 0-1.4.4-.95.55-1.25 1.65-.3 1.1.25 2.05.1.15 3.6 3.95 4.7 3.7 10.8 3.7 6.15 0 10.8-3.7 2.35-1.85 3.6-3.95.55-.95.25-2.05-.25-1.05-1.25-1.65-.95-.55-2.05-.3-1.1.3-1.65 1.25z"/><path id="c" fill="#2F2F2F" d="M28.1 51.45q-.95.55-1.25 1.65-.3 1.1.25 2.05.1.2 3.6 3.95 4.65 3.7 10.8 3.7t10.8-3.7q2.85-2.25 3.55-3.95.6-.95.3-2.05-.25-1.1-1.25-1.65-.95-.6-2.05-.3-1.1.25-1.65 1.25-.75 1.25-2.35 2.5-3.15 2.45-7.35 2.45-4.15 0-7.25-2.4-2.35-2.45-2.4-2.55-.85-1.35-2.4-1.35-.65 0-1.35.4z"/><path id="d" fill="#2F2F2F" d="M48.55 47.85q-.1-.05-3.45-2.45-4.25-2.3-9.2-2.3-5 0-9.25 2.3-2.2 1.2-3.45 2.45-.55.55-.5 1.3 0 .75.55 1.3t1.25.55q.8-.05 1.3-.6 1.05-.95 2.7-1.85 3.4-1.8 7.4-1.8 3.95 0 7.35 1.8 2.6 1.8 2.7 1.85.5.55 1.25.6.75 0 1.3-.55t.6-1.3q0-.75-.55-1.3z"/></defs><use transform="scale(.5625)" xlink:href="#a"/><use transform="rotate(15 31.372 34.316) scale(.56247)" xlink:href="#b"/><use transform="rotate(-15 40.333 34.097) scale(.56247)" xlink:href="#c"/><use transform="translate(.1 2.15)" xlink:href="#d"/></svg>

<svg xmlns="http://www.w3.org/2000/svg" version="1.1" xmlns:xlink="http://www.w3.org/1999/xlink" preserveAspectRatio="none" x="0px" y="0px" width="72px" height="72px" viewBox="0 0 72 72">
<defs>
<g id="Layer0_0_FILL">
<path fill="#FCC21B" stroke="none" d="
M 127.75 93.35
Q 127.75 66.35 119.25 46.35 103.65 9.7 64 9.7 24.3 9.65 8.7 46.3 0.2 66.35 0.2 93.35 0.2 103.75 18.9 111.05 37.55 118.4 64 118.4 90.4 118.4 109.1 111.05 127.75 103.75 127.75 93.35 Z"/>
</g>

<g id="Layer0_1_FILL">
<path fill="#2F2F2F" stroke="none" d="
M 96.15 52.4
Q 95.3 53.75 93.7 54.95 90.6 57.35 86.45 57.35 82.35 57.35 79.2 54.95 76.85 52.5 76.75 52.35 76 51.05 74.45 51.05 73.75 51.05 73.05 51.45 72.1 52 71.8 53.1 71.5 54.2 72.05 55.15 72.15 55.3 75.65 59.1 80.35 62.8 86.45 62.8 92.6 62.8 97.25 59.1 99.6 57.25 100.85 55.15 101.4 54.2 101.1 53.1 100.85 52.05 99.85 51.45 98.9 50.9 97.8 51.15 96.7 51.45 96.15 52.4 Z"/>
</g>

<g id="Layer0_2_FILL">
<path fill="#2F2F2F" stroke="none" d="
M 28.1 51.45
Q 27.15 52 26.85 53.1 26.55 54.2 27.1 55.15 27.2 55.35 30.7 59.1 35.35 62.8 41.5 62.8 47.65 62.8 52.3 59.1 55.15 56.85 55.85 55.15 56.45 54.2 56.15 53.1 55.9 52 54.9 51.45 53.95 50.85 52.85 51.15 51.75 51.4 51.2 52.4 50.45 53.65 48.85 54.9 45.7 57.35 41.5 57.35 37.35 57.35 34.25 54.95 31.9 52.5 31.85 52.4 31 51.05 29.45 51.05 28.8 51.05 28.1 51.45 Z"/>
</g>

<g id="Layer0_3_FILL">
<path fill="#2F2F2F" stroke="none" d="
M 48.55 47.85
Q 48.45 47.8 45.1 45.4 40.85 43.1 35.9 43.1 30.9 43.1 26.65 45.4 24.45 46.6 23.2 47.85 22.65 48.4 22.7 49.15 22.7 49.9 23.25 50.45 23.8 51 24.5 51 25.3 50.95 25.8 50.4 26.85 49.45 28.5 48.55 31.9 46.75 35.9 46.75 39.85 46.75 43.25 48.55 45.85 50.35 45.95 50.4 46.45 50.95 47.2 51 47.95 51 48.5 50.45 49.05 49.9 49.1 49.15 49.1 48.4 48.55 47.85 Z"/>
</g>
</defs>

<g id="Layer_1">
<g transform="matrix( 0.5625, 0, 0, 0.5625, 0,0) ">
<use xlink:href="#Layer0_0_FILL"/>
</g>

<g transform="matrix( 0.543304443359375, 0.14556884765625, -0.14556884765625, 0.543304443359375, 9.95,-6.95) ">
<use xlink:href="#Layer0_1_FILL"/>
</g>

<g transform="matrix( 0.543304443359375, -0.14556884765625, 0.14556884765625, 0.543304443359375, -7.45,11.6) ">
<use xlink:href="#Layer0_2_FILL"/>
</g>

<g transform="matrix( 1, 0, 0, 1, 0.1,2.15) ">
<use xlink:href="#Layer0_3_FILL"/>
</g>
</g>
</svg>
